X: 13081
T: Fiona And Gavin's Wedding
R: waltz
M: 3/4
K: Gmajor
D G>A|B3A B>d|G3B d>d|e3c G>e|d4 e>f|
g3f g>e|dB- B>c B>A|G3B d>B|A3D G>A|
B3A B>c|BG3 B>d|e3c G>e|d3D G>A|
B3B A>B|cA3 F>A|AG-G4-|G3G B>d|
g3e c>d|e3g f>e|ed3 G>A|B3d e>f|
g3a g>e|d2 B2 B>A|G3B d>B|A3d G>A|
B3c B>A|GD3 B>d|e3c G>e|d3D G>A|
B3B A>B|cA3 F>A|AG-G4-|G3||

